X:179
T: SCHATZ MEIN SCHATZ REIS NICHT SO WEIT
N: E0766D
O: Europa, Mitteleuropa, Deutschland, Baden; Elsass; Schleswig; Hessen
R: Abschieds - Lied, Liebe
M: 4/4
L: 1/16
K: Eb
E2E2G2 | B4B4c3cB2A2 | G4z2
E2E2E2 | A2c2e2e2d2c2 | B2e2G2
B2c2B2 | d6c2B2A2 | G4z2
E2E2E2 | A2c2e2e2d2c2 | B2e2G2
B2c2B2 | d6c2B2A2 | G4z2

